1-exam/assets/images/logo.svg

<svg width="108" height="32" viewBox="0 0 108 32" fill="none" xmlns="http://www.w3.org/2000/svg">
<path d="M56.0479 11.94C55.9545 12.0933 55.8577 12.2067 55.7577 12.28C55.6642 12.3467 55.5408 12.38 55.3873 12.38C55.2405 12.38 55.0804 12.33 54.9069 12.23C54.7401 12.1233 54.5433 12.01 54.3164 11.89C54.0896 11.77 53.8293 11.66 53.5358 11.56C53.2422 11.4533 52.8985 11.4 52.5049 11.4C51.811 11.4 51.2905 11.5567 50.9435 11.87C50.5966 12.1767 50.4231 12.58 50.4231 13.08C50.4231 13.4 50.5165 13.6667 50.7033 13.88C50.8968 14.0867 51.1471 14.2667 51.454 14.42C51.7676 14.5733 52.1212 14.71 52.5149 14.83C52.9086 14.95 53.3122 15.0833 53.7259 15.23C54.1396 15.37 54.5433 15.5367 54.937 15.73C55.3306 15.9233 55.6809 16.1667 55.9879 16.46C56.3015 16.7533 56.5517 17.1133 56.7385 17.54C56.932 17.96 57.0287 18.4733 57.0287 19.08C57.0287 19.74 56.912 20.36 56.6784 20.94C56.4516 21.5133 56.1213 22.0167 55.6876 22.45C55.2539 22.8767 54.7168 23.2133 54.0762 23.46C53.4423 23.7067 52.7217 23.83 51.9144 23.83C51.454 23.83 50.9936 23.7833 50.5332 23.69C50.0795 23.5967 49.6391 23.4667 49.2121 23.3C48.7917 23.1333 48.3947 22.9333 48.021 22.7C47.6474 22.4667 47.3204 22.2067 47.0402 21.92L47.921 20.5C47.9944 20.3933 48.0911 20.3067 48.2112 20.24C48.3313 20.1667 48.4581 20.13 48.5915 20.13C48.7717 20.13 48.9618 20.1967 49.162 20.33C49.3622 20.4633 49.5924 20.61 49.8526 20.77C50.1128 20.93 50.4131 21.0767 50.7534 21.21C51.1003 21.3433 51.514 21.41 51.9944 21.41C52.695 21.41 53.2355 21.25 53.6158 20.93C54.0028 20.61 54.1963 20.1333 54.1963 19.5C54.1963 19.1333 54.0996 18.8367 53.9061 18.61C53.7192 18.3833 53.4724 18.1933 53.1654 18.04C52.8585 17.8867 52.5082 17.7567 52.1145 17.65C51.7209 17.5367 51.3172 17.4133 50.9035 17.28C50.4898 17.1467 50.0861 16.9867 49.6925 16.8C49.2988 16.6133 48.9485 16.3667 48.6416 16.06C48.3346 15.7533 48.0844 15.3733 47.8909 14.92C47.7041 14.4667 47.6107 13.9033 47.6107 13.23C47.6107 12.69 47.7175 12.1667 47.931 11.66C48.1445 11.1533 48.4581 10.7033 48.8718 10.31C49.2855 9.91667 49.7926 9.6 50.3931 9.36C51.0003 9.12 51.6942 9 52.4749 9C53.3489 9 54.1563 9.13667 54.8969 9.41C55.6442 9.67667 56.2748 10.05 56.7885 10.53L56.0479 11.94Z" fill="white"/>
<path d="M74.8396 16.41C74.8396 17.47 74.6594 18.4533 74.2991 19.36C73.9455 20.2667 73.4417 21.05 72.7878 21.71C72.1406 22.37 71.36 22.89 70.4458 23.27C69.5317 23.6433 68.5175 23.83 67.4032 23.83C66.289 23.83 65.2748 23.6433 64.3606 23.27C63.4465 22.89 62.6625 22.37 62.0086 21.71C61.3547 21.05 60.8476 20.2667 60.4873 19.36C60.1337 18.4533 59.9569 17.47 59.9569 16.41C59.9569 15.35 60.1337 14.37 60.4873 13.47C60.8476 12.5633 61.3547 11.78 62.0086 11.12C62.6625 10.46 63.4465 9.94333 64.3606 9.57C65.2748 9.19 66.289 9 67.4032 9C68.5175 9 69.5317 9.19 70.4458 9.57C71.36 9.94333 72.1406 10.4633 72.7878 11.13C73.4417 11.79 73.9455 12.5733 74.2991 13.48C74.6594 14.38 74.8396 15.3567 74.8396 16.41ZM71.767 16.41C71.767 15.65 71.6669 14.97 71.4667 14.37C71.2665 13.7633 70.9763 13.25 70.596 12.83C70.2223 12.4033 69.7653 12.08 69.2248 11.86C68.691 11.6333 68.0838 11.52 67.4032 11.52C66.7227 11.52 66.1121 11.6333 65.5717 11.86C65.0312 12.08 64.5708 12.4033 64.1905 12.83C63.8168 13.25 63.5299 13.7633 63.3298 14.37C63.1296 14.97 63.0295 15.65 63.0295 16.41C63.0295 17.1767 63.1296 17.8633 63.3298 18.47C63.5299 19.07 63.8168 19.58 64.1905 20C64.5708 20.42 65.0312 20.7433 65.5717 20.97C66.1121 21.19 66.7227 21.3 67.4032 21.3C68.0838 21.3 68.691 21.19 69.2248 20.97C69.7653 20.7433 70.2223 20.42 70.596 20C70.9763 19.58 71.2665 19.07 71.4667 18.47C71.6669 17.8633 71.767 17.1767 71.767 16.41Z" fill="white"/>
<path d="M87.2511 21.23V23.67H78.6338V9.16H81.6363V21.23H87.2511Z" fill="white"/>
<path d="M93.7159 23.67H90.6933V9.16H93.7159V23.67Z" fill="white"/>
<path d="M106.221 11.94C106.128 12.0933 106.031 12.2067 105.931 12.28C105.838 12.3467 105.714 12.38 105.561 12.38C105.414 12.38 105.254 12.33 105.08 12.23C104.913 12.1233 104.717 12.01 104.49 11.89C104.263 11.77 104.003 11.66 103.709 11.56C103.416 11.4533 103.072 11.4 102.678 11.4C101.984 11.4 101.464 11.5567 101.117 11.87C100.77 12.1767 100.596 12.58 100.596 13.08C100.596 13.4 100.69 13.6667 100.877 13.88C101.07 14.0867 101.32 14.2667 101.627 14.42C101.941 14.5733 102.295 14.71 102.688 14.83C103.082 14.95 103.486 15.0833 103.899 15.23C104.313 15.37 104.717 15.5367 105.11 15.73C105.504 15.9233 105.854 16.1667 106.161 16.46C106.475 16.7533 106.725 17.1133 106.912 17.54C107.105 17.96 107.202 18.4733 107.202 19.08C107.202 19.74 107.085 20.36 106.852 20.94C106.625 21.5133 106.295 22.0167 105.861 22.45C105.427 22.8767 104.89 23.2133 104.25 23.46C103.616 23.7067 102.895 23.83 102.088 23.83C101.627 23.83 101.167 23.7833 100.707 23.69C100.253 23.5967 99.8124 23.4667 99.3854 23.3C98.9651 23.1333 98.5681 22.9333 98.1944 22.7C97.8207 22.4667 97.4938 22.2067 97.2136 21.92L98.0943 20.5C98.1677 20.3933 98.2645 20.3067 98.3846 20.24C98.5047 20.1667 98.6314 20.13 98.7649 20.13C98.945 20.13 99.1352 20.1967 99.3354 20.33C99.5355 20.4633 99.7657 20.61 100.026 20.77C100.286 20.93 100.586 21.0767 100.927 21.21C101.274 21.3433 101.687 21.41 102.168 21.41C102.868 21.41 103.409 21.25 103.789 20.93C104.176 20.61 104.37 20.1333 104.37 19.5C104.37 19.1333 104.273 18.8367 104.079 18.61C103.893 18.3833 103.646 18.1933 103.339 18.04C103.032 17.8867 102.682 17.7567 102.288 17.65C101.894 17.5367 101.491 17.4133 101.077 17.28C100.663 17.1467 100.259 16.9867 99.8658 16.8C99.4722 16.6133 99.1219 16.3667 98.8149 16.06C98.508 15.7533 98.2578 15.3733 98.0643 14.92C97.8775 14.4667 97.784 13.9033 97.784 13.23C97.784 12.69 97.8908 12.1667 98.1043 11.66C98.3178 11.1533 98.6314 10.7033 99.0451 10.31C99.4588 9.91667 99.9659 9.6 100.566 9.36C101.174 9.12 101.868 9 102.648 9C103.522 9 104.33 9.13667 105.07 9.41C105.818 9.67667 106.448 10.05 106.962 10.53L106.221 11.94Z" fill="white"/>
<path fill-rule="evenodd" clip-rule="evenodd" d="M21.0937 4.75L23.5201 7.17431L30.7006 0H25.7852L21.0937 4.75ZM32.0274 8.11181L28.6001 4.75L32.0274 1.32568V8.11181ZM6.07855 19.7489L12.2572 13.5755L14.6832 15.9994L8.50457 22.1728L6.07855 19.7489ZM21.0898 19.7505L27.2684 13.5771L29.6944 16.0011L23.5158 22.1745L21.0898 19.7505ZM16.0097 17.326L13.5837 19.7499L19.7624 25.9233L22.1884 23.4994L16.0097 17.326ZM12.2605 21.0757L18.4401 27.25L16.0137 29.7368L9.83409 23.5L12.2605 21.0757ZM31.0891 17.3257L32.0274 18.2632V23.1118L28.6001 19.75L31.0891 17.3257ZM2.32615 15.9989L8.50483 9.8255L10.9308 12.2494L4.75218 18.4228L2.32615 15.9989ZM23.516 9.82713L17.3374 16.0005L19.7634 18.4245L25.9421 12.2511L23.516 9.82713ZM27.2733 6.07568L32.0274 10.7632V15.6118L24.8469 8.5L27.2733 6.07568ZM13.5873 4.75L19.7669 10.9243L22.1933 8.5L16.0137 2.26318L13.5873 4.75ZM12.2582 6.07672L9.83214 8.50067L16.0108 14.6741L18.4368 12.2501L12.2582 6.07672ZM25.9465 27.25L23.5201 24.8257L16.4022 32H21.255L25.9465 27.25ZM12.2605 28.5757L14.6869 31.0625L13.7486 32H8.89579L12.2605 28.5757ZM10.9337 27.25L8.50728 24.8257L1.32683 32H6.24215L10.9337 27.25ZM24.8469 23.5L27.2733 21.0757L32.0274 25.7632V30.6743L24.8469 23.5ZM0 23.8882V30.6743L3.42724 27.25L0 23.8882ZM23.9086 32L27.2733 28.5757L30.7006 32H23.9086ZM17.3405 0.9375L19.7669 3.42431L23.1316 0H18.2788L17.3405 0.9375ZM8.11876 0L4.75407 3.42431L1.32683 0H8.11876ZM4.75406 25.9243L7.18045 23.5L0 16.3882V21.2368L4.75406 25.9243ZM8.50727 7.17431L6.08088 4.75L10.7724 0H15.6252L8.50727 7.17431ZM4.75406 10.9243L7.18045 8.5L0 1.32568V6.23681L4.75406 10.9243ZM3.42724 12.25L0.938302 14.6743L0 13.7368V8.88818L3.42724 12.25Z" fill="white"/>
</svg>

<svg xmlns="http://www.w3.org/2000/svg" width="108" height="32" fill="none"><path fill="#fff" d="m56 12-.2.3h-.4a1 1 0 0 1-.5 0 8.4 8.4 0 0 0-1.4-.7 3 3 0 0 0-1-.2c-.7 0-1.2.2-1.6.5-.3.3-.5.7-.5 1.2 0 .3.1.6.3.8.2.2.4.4.8.5l1 .4a28.4 28.4 0 0 1 2.4 1c.4.1.8.4 1 .7.4.3.7.6.8 1a5 5 0 0 1 0 3.4 4.4 4.4 0 0 1-2.6 2.6 7 7 0 0 1-4.9-.2l-1.2-.6-1-.8 1-1.4c0-.1 0-.2.2-.3h.4l.6.1a23 23 0 0 0 1.6 1l1.2.1c.7 0 1.2-.1 1.6-.5.4-.3.6-.8.6-1.4 0-.4-.1-.7-.3-.9l-.7-.6-1-.4a40.3 40.3 0 0 1-2.5-.8c-.4-.2-.8-.4-1-.7-.4-.3-.6-.7-.8-1.2a4.5 4.5 0 0 1 0-3.2c.2-.5.6-1 1-1.4.4-.4.9-.7 1.5-1a7 7 0 0 1 4.5 0l1.9 1.2L56 12ZM74.8 16.4c0 1-.1 2-.5 3a6.8 6.8 0 0 1-3.9 3.9 8 8 0 0 1-3 .5 8 8 0 0 1-3-.5 7.1 7.1 0 0 1-4-4 8 8 0 0 1-.4-2.9c0-1 .1-2 .5-3a7 7 0 0 1 3.9-3.8 7.9 7.9 0 0 1 6 0 6.8 6.8 0 0 1 3.9 3.9c.4.9.5 1.9.5 3Zm-3 0c0-.7-.1-1.4-.3-2-.2-.6-.5-1.2-.9-1.6-.4-.4-.8-.7-1.4-1-.5-.2-1.1-.3-1.8-.3s-1.3.1-1.8.4c-.6.2-1 .5-1.4 1-.4.3-.7.9-.9 1.5-.2.6-.3 1.3-.3 2 0 .8.1 1.5.3 2 .2.7.5 1.2.9 1.6.4.4.8.7 1.4 1 .5.2 1.1.3 1.8.3s1.3-.1 1.8-.3c.6-.3 1-.6 1.4-1 .4-.4.7-1 .9-1.5.2-.6.3-1.3.3-2ZM87.3 21.2v2.5h-8.7V9.2h3v12h5.7ZM93.7 23.7h-3V9.2h3v14.5ZM106.2 12l-.3.3h-.3a1 1 0 0 1-.5 0 8.4 8.4 0 0 0-1.4-.7 3 3 0 0 0-1-.2c-.7 0-1.2.2-1.6.5-.3.3-.5.7-.5 1.2 0 .3 0 .6.3.8l.7.5 1 .4a28 28 0 0 1 2.5 1c.4.1.8.4 1 .7.4.3.6.6.8 1a5 5 0 0 1 0 3.4 4.4 4.4 0 0 1-2.7 2.6 7 7 0 0 1-4.9-.2l-1.1-.6-1-.8.9-1.4.3-.3h.4l.5.1a22.7 22.7 0 0 0 1.6 1l1.3.1c.7 0 1.2-.1 1.6-.5.4-.3.6-.8.6-1.4 0-.4-.1-.7-.3-.9l-.8-.6-1-.4a40.2 40.2 0 0 1-2.4-.8c-.4-.2-.8-.4-1-.7-.4-.3-.6-.7-.8-1.2a4.5 4.5 0 0 1 0-3.2c.2-.5.5-1 1-1.4.4-.4.9-.7 1.5-1a7 7 0 0 1 4.5 0l1.9 1.2-.8 1.4Z"/><path fill="#fff" fill-rule="evenodd" d="m21 4.8 2.5 2.4L30.7 0h-5l-4.6 4.8ZM32 8l-3.4-3.3L32 1.3v6.8ZM6 19.7l6.3-6.1 2.4 2.4-6.2 6.2-2.4-2.5Zm15 0 6.3-6.1 2.4 2.4-6.2 6.2-2.4-2.4Zm-5-2.4-2.4 2.4 6.2 6.2 2.4-2.4-6.2-6.2Zm-3.7 3.8 6.1 6.1-2.4 2.5-6.2-6.2 2.5-2.4ZM31 17.3l1 1V23l-3.5-3.4 2.5-2.4ZM2.3 16l6.2-6.2 2.4 2.4-6.1 6.2L2.3 16Zm21.2-6.2L17.3 16l2.5 2.4 6.1-6.1-2.4-2.5Zm3.8-3.7 4.7 4.7v4.8l-7.2-7.1 2.5-2.4ZM13.6 4.8l6.2 6.1 2.4-2.4L16 2.3l-2.4 2.5ZM12.3 6 9.8 8.5l6.2 6.2 2.4-2.4L12.3 6Zm13.6 21.1-2.4-2.4-7.1 7.2h4.9l4.6-4.8Zm-13.6 1.4 2.4 2.5-1 .9H9l3.4-3.4Zm-1.4-1.4-2.4-2.4L1.3 32h5l4.6-4.8Zm14-3.7 2.4-2.4 4.7 4.7v4.9l-7.2-7.2ZM0 23.9v6.8l3.4-3.4L0 23.9ZM24 32l3.3-3.4 3.4 3.4h-6.8ZM17.2 1l2.5 2.4L23 0h-4.8l-1 1ZM8.1 0 4.8 3.4 1.3 0h6.8ZM4.8 26l2.4-2.5L0 16.4v4.8L4.8 26ZM8.5 7.1 6.1 4.7 10.8 0h4.8l-7 7.2Zm-3.7 3.7 2.4-2.4L0 1.3v5l4.8 4.6Zm-1.4 1.3L1 14.8l-.9-1V9l3.4 3.3Z" clip-rule="evenodd"/></svg>
